X:1
T: Mari's Wedding
C: R-48
C: Scottish
M: C|
Z:
R: reel
K: G
"G"D3E D2E2| G2A2 B3B| "C"A2G2 E2G2| "D"B2A2 Bd3|
"G"D3E D2E2| G2A2 B3B| "C"A2G2 EFG2| "D"D4 D4 |]
\
"G"d4 d3e| d2c2 B3B| "C"A2G2 E2G2| "D"B2A2 Bd3|
"G"d4 d3e| d2c2 B3B| "C"A2G2 EFG2| "D"D4 D4 |]
%
